images/icons/user.svg

<svg width="13" height="14" viewBox="0 0 13 14" fill="none" xmlns="http://www.w3.org/2000/svg">
<g clip-path="url(#clip0)">
<path d="M6.40681 6.74384C7.26712 6.74384 8.01208 6.41155 8.62076 5.75594C9.22944 5.10044 9.53799 4.2984 9.53799 3.37181C9.53799 2.44555 9.22944 1.6434 8.62066 0.987682C8.01188 0.332289 7.26702 0 6.40681 0C5.54641 0 4.80165 0.332289 4.19297 0.987789C3.58429 1.64329 3.27563 2.44544 3.27563 3.37181C3.27563 4.2984 3.58429 5.10055 4.19307 5.75605C4.80185 6.41144 5.54671 6.74384 6.40681 6.74384Z" fill="#1C2D5A"/>
<path d="M11.8861 10.7652C11.8685 10.4924 11.833 10.1948 11.7808 9.88059C11.728 9.564 11.66 9.26472 11.5787 8.99117C11.4947 8.70844 11.3805 8.42924 11.2392 8.16168C11.0926 7.88397 10.9204 7.64215 10.7272 7.44316C10.5252 7.23498 10.2778 7.06761 9.99181 6.94553C9.70676 6.82408 9.39086 6.76256 9.05295 6.76256C8.92024 6.76256 8.7919 6.8212 8.54404 6.99498C8.3915 7.10211 8.21307 7.22601 8.01392 7.36305C7.84362 7.4799 7.61292 7.58938 7.32797 7.6885C7.04996 7.78538 6.76769 7.83451 6.48909 7.83451C6.21049 7.83451 5.92831 7.78538 5.65001 7.6885C5.36536 7.58949 5.13466 7.48001 4.96456 7.36316C4.76729 7.2274 4.58876 7.1035 4.43394 6.99487C4.18638 6.82109 4.05794 6.76245 3.92523 6.76245C3.58722 6.76245 3.27142 6.82408 2.98647 6.94563C2.70063 7.0675 2.45317 7.23488 2.25094 7.44327C2.05783 7.64236 1.88555 7.88407 1.73916 8.16168C1.59802 8.42924 1.48376 8.70834 1.39966 8.99128C1.31843 9.26482 1.25049 9.564 1.19772 9.88059C1.14545 10.1944 1.10995 10.4921 1.09239 10.7655C1.07513 11.0334 1.06641 11.3114 1.06641 11.5922C1.06641 12.323 1.28213 12.9147 1.70752 13.351C2.12766 13.7815 2.68357 14 3.3596 14H9.61918C10.2952 14 10.8509 13.7817 11.2712 13.351C11.6966 12.915 11.9124 12.3233 11.9124 11.5921C11.9123 11.31 11.9034 11.0318 11.8861 10.7652Z" fill="#1C2D5A"/>
</g>
<defs>
<clipPath id="clip0">
<rect width="13" height="14" fill="white"/>
</clipPath>
</defs>
</svg>

<svg width="13" height="14" fill="none" xmlns="http://www.w3.org/2000/svg"><g clip-path="url(#a)" fill="#1C2D5A"><path d="M6.407 6.744c.86 0 1.605-.332 2.214-.988.608-.656.917-1.458.917-2.384 0-.926-.309-1.729-.917-2.384C8.01.332 7.267 0 6.407 0c-.86 0-1.605.332-2.214.988-.609.655-.917 1.457-.917 2.384 0 .926.308 1.729.917 2.384.609.655 1.354.988 2.214.988ZM11.886 10.765a8.971 8.971 0 0 0-.105-.884 7.43 7.43 0 0 0-.202-.89 4.567 4.567 0 0 0-.34-.83 3.115 3.115 0 0 0-.512-.718 2.242 2.242 0 0 0-.735-.497 2.381 2.381 0 0 0-.94-.183c-.132 0-.26.058-.508.232-.152.107-.33.231-.53.368-.17.117-.401.226-.686.325-.278.097-.56.147-.839.147-.279 0-.56-.05-.839-.146a2.928 2.928 0 0 1-.685-.326c-.198-.136-.376-.26-.531-.368-.248-.174-.376-.233-.509-.233-.338 0-.654.062-.939.184a2.24 2.24 0 0 0-.735.497c-.193.2-.365.441-.512.719a4.58 4.58 0 0 0-.34.83 8.91 8.91 0 0 0-.307 1.774c-.017.267-.026.545-.026.826 0 .731.216 1.323.642 1.759.42.43.976.649 1.652.649h6.26c.675 0 1.23-.218 1.651-.649.426-.436.641-1.028.641-1.759 0-.282-.009-.56-.026-.827Z"/></g><defs><clipPath id="a"><path fill="#fff" d="M0 0h13v14H0z"/></clipPath></defs></svg>
